src/symbolic/apps/dino-symbolic.svg

<svg xmlns="http://www.w3.org/2000/svg" width="16" height="16" version="1">
 <path style="opacity:0.3;fill:#444444" d="M 7.1934,0 C 6.5636,0 5.2344,2.7051 5.2344,2.7051 5.2344,2.7051 2.5085,0.82812 2.0996,1.0605 1.7381,1.266 1.9004,4.2871 1.9004,4.2871 L 5.5469,7 0,9 C 0,12.866 3.134,16 7,16 8.4382,16 9.7727,15.562 10.885,14.818 12.841,15.459 15.398,16.215 15.611,15.941 15.667,15.87 15.612,15.706 15.516,15.465 15.677,15.214 16.113,14.473 15.973,14.23 15.856,14.031 15.167,14.023 14.752,14.029 14.682,13.914 14.624,13.808 14.551,13.689 14.761,13.3 15.122,12.586 14.975,12.334 14.821,12.072 13.888,12.027 13.469,12.014 13.431,11.958 13.388,11.889 13.352,11.836 13.678,11.596 14.98,10.632 15.037,10.303 15.105,9.9137 13.443,8.5078 13.443,8.5078 13.443,8.5078 15.146,5.6461 15,5.3008 14.817,4.8674 12.201,5 12.201,5 12.201,5 13.178,2.2923 12.775,2.0371 12.437,1.8228 8.9434,2.7012 8.9434,2.7012 8.9434,2.7012 7.8192,0 7.1934,0 Z"/>
 <path style="fill:#444444" d="M 0.084,10.01 C 0.102,10.093 0.129,10.163 0.152,10.24 0.484,11.322 1.348,11.758 1.348,11.758 1.557,11.927 1.818,12.099 2.119,12.27 H 2.094 C 2.094,12.27 2.726,16.028 3.883,16 4.758,15.978 5.442,13.965 6.555,14 7.666,14.035 8.117,15.988 9.223,16 9.861,16.007 10.417,14.891 10.768,14 H 11.098 C 12.149,14.979 14.541,15.629 15.576,15.967 15.59,15.959 15.609,16 15.609,16 15.841,15.703 14.394,13.353 13.383,11.844 13.771,10.973 14,10.015 14,9 14,5.134 10.866,2 7,2 3.3939,2 0.506,4.7549 0.068,8.0801 0.027,8.3086 0,8.5936 0,9 0.00438,9.3636 0.033,9.6905 0.084,10.01 Z M 3,6 H 4 V 7 H 3 Z"/>
</svg>

<svg xmlns="http://www.w3.org/2000/svg" width="16" height="16" version="1"><path d="M7.193 0c-.63 0-1.959 2.705-1.959 2.705S2.51.828 2.1 1.06c-.362.206-.2 3.227-.2 3.227L5.547 7 0 9a7 7 0 0 0 7 7 6.964 6.964 0 0 0 3.885-1.182c1.956.641 4.513 1.397 4.726 1.123.056-.071.001-.235-.095-.476.161-.251.597-.992.457-1.235-.117-.199-.806-.207-1.221-.201-.07-.115-.128-.221-.201-.34.21-.389.571-1.103.424-1.355-.154-.262-1.087-.307-1.506-.32l-.117-.178c.326-.24 1.628-1.204 1.685-1.533.068-.39-1.594-1.795-1.594-1.795S15.146 5.646 15 5.3C14.817 4.867 12.201 5 12.201 5s.977-2.708.574-2.963c-.338-.214-3.832.664-3.832.664S7.82 0 7.193 0z" opacity=".3" fill="#444"/><path d="M.084 10.01c.018.083.045.153.068.23.332 1.082 1.196 1.518 1.196 1.518.209.169.47.341.771.512h-.025s.632 3.758 1.789 3.73c.875-.022 1.559-2.035 2.672-2 1.111.035 1.562 1.988 2.668 2 .638.007 1.194-1.109 1.545-2h.33c1.051.979 3.443 1.629 4.478 1.967.014-.008.033.033.033.033.232-.297-1.215-2.647-2.226-4.156A6.966 6.966 0 0 0 14 9a7 7 0 0 0-7-7C3.394 2 .506 4.755.068 8.08A5.157 5.157 0 0 0 0 9c.004.364.033.69.084 1.01zM3 6h1v1H3z" fill="#444"/></svg>
